icons/styledcomponents-filled.svg

<svg width="256" height="256" viewBox="0 0 256 256" fill="none" xmlns="http://www.w3.org/2000/svg">
<rect width="256" height="256" rx="60" fill="url(#paint0_linear_163_1214)"/>
<path d="M11.487 129.079L61.791 149.463V163.732L2.24152 136.141V127.769L11.487 129.079ZM61.791 112.336L11.5598 133.01L2.24152 134.03V125.585L61.791 98.067V112.336Z" fill="white"/>
<path d="M241.371 131.991L189.611 111.826V97.9214L251.781 125.439V133.957L241.371 131.991ZM189.611 149.754L241.517 129.152L251.781 127.623V136.068L189.611 163.659V149.754Z" fill="white"/>
<path fill-rule="evenodd" clip-rule="evenodd" d="M176.077 61.0989C175.789 65.6652 173.732 70.4334 174.305 74.8724C177.898 81.2257 185.806 82.2394 192.33 82.6749C196.85 83.4825 196.793 80.4898 196.49 77.1276C196.508 71.7532 196.526 66.3788 196.545 61.0044C189.722 61.0289 182.897 60.9367 176.077 61.0989ZM122.276 73.8698C111.168 75.7546 99.9082 81.0627 90.6673 87.453C83.2291 93.2417 97.0523 98.852 102.067 99.7898C112.157 99.9127 121.106 93.1074 127.734 86.0428C129.898 83.0722 132.601 78.5258 129.882 75.0835C127.806 73.2832 124.787 73.72 122.276 73.8698ZM145.913 90.0242C136.78 91.7632 128.09 95.5279 120.401 100.769C114.764 102.539 110.118 108.728 117.103 111.829C124.438 117.674 132.939 116.242 139.694 112.296C145.88 108.619 152.562 104.082 155.424 97.1602C158.127 89.5773 151.153 89.2957 145.913 90.0242ZM171.822 119.407C170.121 126.511 162.967 129.741 159.161 135.37C156.049 139.476 157.49 144.313 161.033 147.545C162.758 151.122 165.782 153.121 169.025 150.014C177.377 144.336 179.687 133.276 179.34 123.693C179.957 119.735 175.416 123.313 171.822 119.407V119.407ZM140.039 132.75C128.948 134.648 117.855 140.052 108.61 146.432C101.433 152.213 114.95 157.611 120.006 158.467C130.283 158.482 139.45 151.859 145.948 144.337C148.208 141.35 150.947 135.549 146.472 133.174C144.471 132.326 142.148 132.575 140.039 132.75V132.75Z" fill="#B956A6"/>
<path fill-rule="evenodd" clip-rule="evenodd" d="M90.6673 87.453C82.1375 90.8661 73.9085 95.0103 65.7834 99.3498C64.273 104.965 65.484 111.918 65.0925 118.075C65.063 143.391 65.0775 168.708 65.0726 194.024C71.3463 194.024 77.6201 194.024 83.8938 194.024C87.6933 190.446 92.4538 187.827 96.5811 184.578C112.475 173.179 128.364 161.736 144.237 150.369C145.405 150.894 144.657 143.498 142.095 148.635C136.024 154.348 127.966 159.047 119.437 158.588C114.597 156.996 106.795 154.295 106.746 148.364C110.153 144.353 100.46 150.464 97.8083 151.339C89.1857 155.479 80.7672 160.102 72.1272 164.165C74.2042 161.935 78.0889 159.856 80.842 157.644C100.515 143.522 120.183 129.345 139.903 115.234C143.696 112.571 147.36 109.666 151.27 107.177C151.627 108.556 152.297 100.584 149.389 105.492C143.461 111.368 135.465 115.742 127.032 115.802C122.289 114.362 112.187 110.919 114.436 104.795C115.533 102.646 104.248 109.376 109.234 105.581C114.541 101.703 119.89 97.8938 125.238 94.0562C127.939 93.8528 127.364 83.8205 123.694 90.2919C117.529 95.7088 109.429 100.665 100.938 99.4904C96.1682 98.1173 90.4448 95.4576 88.7114 90.4697C88.137 89.2716 91.9228 87.4054 90.6673 87.453ZM126.006 93.6462C125.533 94.9992 126.863 93.1517 126.006 93.6462V93.6462Z" fill="#FCCC44"/>
<path fill-rule="evenodd" clip-rule="evenodd" d="M179.899 80.7493C177.236 93.4665 174.325 106.775 171.822 119.407C179.014 128.471 179.711 113.681 180.969 109.499C183.002 100.758 185.41 94.1577 185.665 85.1075C186.205 82.0195 182.575 80.1486 179.899 80.7493ZM188.15 90.7215C187.925 92.0255 188.478 90.9666 188.15 90.7215V90.7215ZM179.76 119.236C180.106 119.981 180.106 118.49 179.76 119.236V119.236Z" fill="#62777F"/>
<path fill-rule="evenodd" clip-rule="evenodd" d="M184.616 82.1892C186.86 94.7924 179.427 110.102 176.996 121.984C182.516 117.922 186.781 99.492 187.871 92.2782C188.152 91.453 188.498 89.3766 188.573 89.3022C188.92 87.5506 192.153 84.5838 192.33 82.675C194.212 81.3466 183.08 81.1326 184.616 82.1892ZM180.039 119.236C179.692 119.981 179.692 118.49 180.039 119.236V119.236Z" fill="#4E5E67"/>
<path fill-rule="evenodd" clip-rule="evenodd" d="M90.8537 87.6628C87.742 90.7786 88.9097 90.0176 91.2264 87.4265L90.8537 87.6628ZM124.514 89.206C120.909 94.6231 107.909 99.1529 106.272 99.5038C114.092 98.0393 121.381 93.1749 126.51 87.4757C125.695 87.8387 125.211 88.6925 124.514 89.206ZM88.7155 90.965C90.6587 95.6369 97.7239 98.7415 101.157 99.4655C96.4698 97.9558 90.9525 95.2772 88.7155 90.965V90.965ZM125.726 93.6667C124.745 94.825 121.251 96.5579 119.409 98.2563C115.458 101.171 111.371 103.879 107.465 106.866C109.952 106.759 117.24 101.315 113.504 106.839C116.67 112.288 123.563 116.077 129.848 115.731C138.148 114.428 145.802 109.839 151.304 103.457C144.625 110.066 135.795 116.286 126.024 115.429C121.295 114.337 108.373 107.662 117.017 102.983C120.065 100.476 125.32 99.1626 125.915 94.7571C125.79 94.2071 126.815 93.6703 125.726 93.6668V93.6667ZM102.067 99.7899C105.212 100.201 105.212 99.3792 102.067 99.7899V99.7899ZM151.07 107.315C138.591 116.009 126.293 125.043 113.922 133.893C99.9022 143.927 85.9423 153.998 71.9258 164.024C77.1957 162.247 82.4758 158.777 87.7113 156.38C94.9202 152.566 102.523 149.553 109.269 144.92C122.607 137.068 136.713 129.587 146.972 117.574C149.211 114.948 151.456 110.721 151.556 107.878C151.233 107.969 151.478 106.741 151.07 107.315V107.315ZM108.61 146.432C106.365 148.969 105.453 150.782 107.783 147.556C107.742 147.93 109.674 145.553 108.61 146.432ZM142.766 147.646C136.852 153.882 128.105 158.38 119.898 158.683C129.386 158.752 137.946 153.12 144.374 146.476C143.952 145.966 143.097 147.664 142.766 147.646ZM144.573 149.606C124.704 164.07 104.149 179.073 84.2128 193.485C87.3539 194.47 94.1918 194.932 97.3122 190.911C103.953 186.329 111.418 182.96 118.08 178.316C127.727 172.056 138.056 165.214 143.535 154.693C143.796 153.282 145.735 150.744 144.573 149.606V149.606ZM106.76 150.524C107.682 154.416 119.208 158.883 117.958 158.028C113.708 156.538 109.492 154.216 106.76 150.524Z" fill="#DC9624"/>
<defs>
<linearGradient id="paint0_linear_163_1214" x1="0" y1="256" x2="256" y2="0" gradientUnits="userSpaceOnUse">
<stop stop-color="#DB7093"/>
<stop offset="1" stop-color="#F3B661"/>
</linearGradient>
</defs>
</svg>

<svg xmlns="http://www.w3.org/2000/svg" width="256" height="256" fill="none"><rect width="256" height="256" fill="url(#paint0_linear_163_1214)" rx="60"/><path fill="#fff" d="m11.487 129.079 50.304 20.384v14.269l-59.55-27.591v-8.372zm50.304-16.743L11.56 133.01l-9.318 1.02v-8.445L61.79 98.067zm179.58 19.655-51.76-20.165V97.921l62.17 27.518v8.518zm-51.76 17.763 51.906-20.602 10.264-1.529v8.445l-62.17 27.591z"/><path fill="#B956A6" fill-rule="evenodd" d="M176.077 61.099c-.288 4.566-2.345 9.334-1.772 13.773 3.593 6.354 11.501 7.367 18.025 7.803 4.52.808 4.463-2.185 4.16-5.547l.055-16.124c-6.823.025-13.648-.067-20.468.095m-53.801 12.77c-11.108 1.886-22.368 7.194-31.609 13.584-7.438 5.789 6.385 11.399 11.4 12.337 10.09.123 19.039-6.683 25.667-13.747 2.164-2.97 4.867-7.517 2.148-10.96-2.076-1.8-5.095-1.363-7.606-1.213m23.637 16.155c-9.133 1.74-17.823 5.504-25.512 10.745-5.637 1.77-10.283 7.959-3.298 11.06 7.335 5.845 15.836 4.413 22.591.467 6.186-3.677 12.868-8.214 15.73-15.136 2.703-7.583-4.271-7.864-9.511-7.136m25.909 29.383c-1.701 7.104-8.855 10.334-12.661 15.963-3.112 4.106-1.671 8.943 1.872 12.175 1.725 3.577 4.749 5.576 7.992 2.469 8.352-5.678 10.662-16.738 10.315-26.321.617-3.958-3.924-.38-7.518-4.286m-31.783 13.343c-11.091 1.898-22.184 7.302-31.429 13.682-7.177 5.781 6.34 11.179 11.396 12.035 10.277.015 19.444-6.608 25.942-14.13 2.26-2.987 4.999-8.788.524-11.163-2.001-.848-4.324-.599-6.433-.424" clip-rule="evenodd"/><path fill="#FCCC44" fill-rule="evenodd" d="M90.667 87.453c-8.53 3.413-16.758 7.557-24.884 11.897-1.51 5.615-.299 12.568-.69 18.725-.03 25.316-.016 50.633-.02 75.949h18.82c3.8-3.578 8.56-6.197 12.688-9.446 15.894-11.399 31.783-22.842 47.656-34.209 1.168.525.42-6.871-2.142-1.734-6.071 5.713-14.129 10.412-22.658 9.953-4.84-1.592-12.642-4.293-12.691-10.224 3.407-4.011-6.286 2.1-8.938 2.975-8.622 4.14-17.04 8.763-25.68 12.826 2.076-2.23 5.96-4.309 8.714-6.521 19.673-14.122 39.341-28.299 59.061-42.41 3.793-2.663 7.457-5.568 11.367-8.057.357 1.379 1.027-6.593-1.881-1.685-5.928 5.876-13.924 10.25-22.357 10.31-4.743-1.44-14.845-4.883-12.596-11.007 1.097-2.149-10.188 4.581-5.202.786 5.307-3.878 10.656-7.687 16.004-11.525 2.701-.203 2.126-10.236-1.544-3.764-6.165 5.417-14.265 10.373-22.756 9.198-4.77-1.373-10.493-4.032-12.227-9.02-.574-1.198 3.212-3.065 1.956-3.017m35.339 6.193c-.473 1.353.857-.494 0 0" clip-rule="evenodd"/><path fill="#62777F" fill-rule="evenodd" d="M179.899 80.75c-2.663 12.716-5.574 26.025-8.077 38.657 7.192 9.064 7.889-5.726 9.147-9.908 2.033-8.741 4.441-15.341 4.696-24.391.54-3.089-3.09-4.96-5.766-4.359m8.251 9.972c-.225 1.303.328.245 0 0m-8.39 28.514c.346.745.346-.746 0 0" clip-rule="evenodd"/><path fill="#4E5E67" fill-rule="evenodd" d="M184.616 82.19c2.244 12.602-5.189 27.912-7.62 39.794 5.52-4.062 9.785-22.492 10.875-29.706.281-.825.627-2.901.702-2.976.347-1.751 3.58-4.718 3.757-6.627 1.882-1.328-9.25-1.542-7.714-.486m-4.577 37.046c-.347.745-.347-.746 0 0" clip-rule="evenodd"/><path fill="#DC9624" fill-rule="evenodd" d="M90.854 87.663c-3.112 3.116-1.944 2.355.372-.236zm33.66 1.543c-3.605 5.417-16.605 9.947-18.242 10.298 7.82-1.465 15.109-6.33 20.238-12.028-.815.363-1.299 1.216-1.996 1.73m-35.798 1.759c1.943 4.672 9.008 7.776 12.441 8.5-4.687-1.51-10.204-4.188-12.441-8.5m37.01 2.702c-.981 1.158-4.475 2.89-6.317 4.59-3.951 2.914-8.038 5.622-11.944 8.609 2.487-.107 9.775-5.551 6.039-.027 3.166 5.449 10.059 9.238 16.344 8.892 8.3-1.303 15.954-5.892 21.456-12.274-6.679 6.609-15.509 12.829-25.28 11.972-4.729-1.092-17.651-7.767-9.007-12.446 3.048-2.507 8.303-3.82 8.898-8.226-.125-.55.9-1.087-.189-1.09m-23.659 6.123c3.145.411 3.145-.41 0 0m49.003 7.525c-12.479 8.694-24.777 17.728-37.148 26.578-14.02 10.034-27.98 20.105-41.996 30.131 5.27-1.777 10.55-5.247 15.785-7.644 7.21-3.814 14.812-6.827 21.558-11.46 13.338-7.852 27.444-15.333 37.703-27.346 2.239-2.626 4.484-6.853 4.584-9.696-.323.091-.078-1.137-.486-.563m-42.46 39.117c-2.245 2.537-3.157 4.35-.827 1.124-.041.374 1.891-2.003.827-1.124m34.156 1.214c-5.914 6.236-14.661 10.734-22.868 11.037 9.488.069 18.048-5.563 24.476-12.207-.422-.51-1.277 1.188-1.608 1.17m1.807 1.96c-19.869 14.464-40.424 29.467-60.36 43.879 3.14.985 9.979 1.447 13.1-2.574 6.64-4.582 14.105-7.951 20.767-12.595 9.647-6.26 19.976-13.102 25.455-23.623.261-1.411 2.2-3.949 1.038-5.087m-37.813.918c.922 3.892 12.448 8.359 11.198 7.504-4.25-1.49-8.466-3.812-11.198-7.504" clip-rule="evenodd"/><defs><linearGradient id="paint0_linear_163_1214" x1="0" x2="256" y1="256" y2="0" gradientUnits="userSpaceOnUse"><stop stop-color="#DB7093"/><stop offset="1" stop-color="#F3B661"/></linearGradient></defs></svg>
